ix/heart-tick_twotone.svg

<svg viewBox="0 0 24 24" fill="none" xmlns="http://www.w3.org/2000/svg" height="1em" width="1em">
  <path d="M22.0004 17.1999C22.0004 18.0999 21.7504 18.9499 21.3004 19.6699C20.4704 21.0599 18.9504 21.9999 17.2004 21.9999C15.4504 21.9999 13.9204 21.0599 13.1004 19.6699C12.6604 18.9499 12.4004 18.0999 12.4004 17.1999C12.4004 14.5499 14.5504 12.3999 17.2004 12.3999C19.8504 12.3999 22.0004 14.5499 22.0004 17.1999Z" stroke="#292D32" stroke-width="1.5" stroke-miterlimit="10" stroke-linecap="round" stroke-linejoin="round"/>
  <path d="M15.3301 17.2L16.5101 18.38L19.0701 16.02" stroke="#292D32" stroke-width="1.5" stroke-linecap="round" stroke-linejoin="round"/>
  <path opacity="0.4" d="M22 8.69012C22 10.6601 21.49 12.4001 20.69 13.9101C19.81 12.9801 18.57 12.4001 17.2 12.4001C14.55 12.4001 12.4 14.5501 12.4 17.2001C12.4 18.4301 12.87 19.5501 13.63 20.4001C13.26 20.5701 12.92 20.7101 12.62 20.8101C12.28 20.9301 11.72 20.9301 11.38 20.8101C8.48 19.8201 2 15.6901 2 8.69012C2 5.60012 4.49 3.1001 7.56 3.1001C9.37 3.1001 10.99 3.98014 12 5.33014C13.01 3.98014 14.63 3.1001 16.44 3.1001C19.51 3.1001 22 5.60012 22 8.69012Z" stroke="#292D32" stroke-width="1.5" stroke-linecap="round" stroke-linejoin="round"/>
</svg>

<svg viewBox="0 0 24 24" fill="none" xmlns="http://www.w3.org/2000/svg" height="1em" width="1em">
  <path d="M22 17.2c0 .9-.25 1.75-.7 2.47A4.768 4.768 0 0 1 17.2 22c-1.75 0-3.28-.94-4.1-2.33-.44-.72-.7-1.57-.7-2.47a4.801 4.801 0 0 1 9.6 0Z" stroke="#292D32" stroke-width="1.5" stroke-miterlimit="10" stroke-linecap="round" stroke-linejoin="round"/>
  <path d="m15.33 17.2 1.18 1.18 2.56-2.36" stroke="#292D32" stroke-width="1.5" stroke-linecap="round" stroke-linejoin="round"/>
  <path opacity=".4" d="M22 8.69c0 1.97-.51 3.71-1.31 5.22a4.794 4.794 0 0 0-3.49-1.51c-2.65 0-4.8 2.15-4.8 4.8 0 1.23.47 2.35 1.23 3.2-.37.17-.71.31-1.01.41-.34.12-.9.12-1.24 0C8.48 19.82 2 15.69 2 8.69 2 5.6 4.49 3.1 7.56 3.1c1.81 0 3.43.88 4.44 2.23a5.549 5.549 0 0 1 4.44-2.23C19.51 3.1 22 5.6 22 8.69Z" stroke="#292D32" stroke-width="1.5" stroke-linecap="round" stroke-linejoin="round"/>
</svg>
